!!!COM: Robert Schumann
!!!CNT: Deutsch
!!!TXO: Deutsch
!!!OTL: Wer machte dich so krank?
!!!LYR: Kerner
!!!OPR: Zwo2lf Gedichte
!!!OPS: Op.35
!!!ONM: No. 11
!!!ENC: Ben Fuhrman
!!!YOR: Schumann Lieder - Max Friedlaender, ed.,
!!!YOR: New York: C. F. Peters, Vol. 2
!!!ODT: 1840/
!!NB: Vocal melody and text only encoded.
!!NB: First instance of melodic material only encoded.
**kern	**silbe
*clefG2	*
*k[b-e-a-d-]	*
*M6/8	*
!!created: 07/05/06 10:30
!!proofed and posted: 07/05/06 10:30
!!edit time: 20 minutes
=3	=3
{8e-	{Dass
8e-	du
8e-	so
[4a-	krank
16a-]	|
16a-	ge-
=4	=4
8a-	-wor-
8a-}	-den,}
8r	.
4r	.
8r	.
=5	=5
{8f	{wer
8.f	hat
16f	es
[4g	denn
16g]	|
16g	ge-
=6	=6
4.a-}	macht?}
8r	.
8r	.
{8a-	{Kein
=7	=7
4g	ku2h-
8g	-ler
[4b-	Hauch
16b-]	|
16a-	aus
=8	=8
8g	Nor-
4b-}	-den}
8r	.
8r	.
{8a-	{und
=9	=9
4g	kei-
8g	-ne
4b-	Ster-
8a-	-nen
=10	=10
(qg	-nacht.
4.b-)}	|}
4r	.
{8cc-	{Kein
=11	=11
4b-	Schat-
8b-	-ten
4dd-	un-
8cc-	-ter
=12	=12
8b-	Ba2u-
4dd-}	-men,}
8r	.
8r	.
{8cc-	{nicht
=13	=13
4b-	Glut
8b-	des
4dd-	Son-
8cc-	-nen-
=14	=14
(4b-	-strahls.
8dd-)}	|}
8r	.
8r	.
{8ee-	{Kein
=15	=15
4dd-	Schlum-
8dd-	-mern
8r	.
8cc-	und
8cc-	kein
=16	=16
4b-	Tra2u-
8b-}	-men}
8r	.
8r	.
{8cc-	{im
=17	=17
4b-	Blu2-
8b-	-ten-
[4a-	-bett
16a-]	|
16a-	des
=18	=18
[4.g	Tals.
4g]}	|}
8r	.
=19	=19
{8e-	{Dass
8e-	ich
8e-	trag'
4a-	Tod-
8a-	-es-
=20	=20
8a-	-wun-
4a-}	-den,}
4r	.
8r	.
=21	=21
{8f	{das
8.f	ist
16f	der
4g	Men-
8g	-schen
=22	=22
[4.a-	Tun;
4a-]	|
8a-	Na-
=23	=23
4a-	tur
8a-	liess
[4an	mich
16an]	|
16an	ge-
=24	=24
8cc	-sun-
4b-}	-de,}
4r	.
8r	.
=25	=25
{8f	{sie
8.f	las-
16f	-sen
8g	mich
8r	.
8g	nicht
=26	=26
4.a-}	ruhn.}
4.r	.
==	==
*-	*-
